!!!OTL: SCHOENSTES SCHAETZCHEN
!!!ARE: Europa, Mitteleuropa, Deutschland, Rheinpfalz
!!!SCT: E0518B
!!!YEM: Copyright 1995, estate of Helmut Schaffrath.
**kern
*ICvox
*Ivox
*M3/4
*k[f#]
*G:
{8.g
16g
=1
4g
4d
8.b
16b
=2
4b
4g}
{8b
8dd
=3
4dd
8ee
8dd
8cc
8b
=4
4a
4r}
{8b
8dd
=5
8cc
8b
4a
8d
8d
=6
8g
8b
4dd}
{8b
8dd
=7
8cc
8b
4a
8d
8d
=8
8g
8b
4dd}
{4g
=9
4ee
4ee
4ee
=10
4.dd
8cc}
{8b
8dd
=11
4cc
4b
4a
=12
2g}
==
!!!AGN: Liebes - Lied
!!!ONB: ESAC (Essen Associative Code) Database: ERK1
!!!AMT: simple triple
!!!AIN: vox
!!!EED: Helmut Schaffrath
!!!EEV: 1.0
*-
